X:9108
T:Ladies Breast Knot,The. JB.17
M:2/4
L:1/8
Q:200
S:James Biggins MS, Leeds, 1779.
R:Misc.
O:England
A:Yorkshire
Z:vmp.Nick Barber & Chris Partington
K:D
D|GB-BG FA-AF|Ee-ed "NB""tr"c2BA|GB-BG FAAc|d/c/B/A/dF"tr"E2D:|!
|:"rest added"z|fdfd fa-ag/f/|ecec eg-gf/e/|fdfd fa2f|eA2G"tr"F2D:|]
%perhaps sharp.
